h5_client/assets/icon/tabulation.svg

<svg height="32" viewBox="0 0 1024 1024" width="32" xmlns="http://www.w3.org/2000/svg"><path d="m63.29814 120.015398v783.435039h895.355061v-783.435039zm335.75802 503.636518v-167.878498h223.840044v167.879522l-223.840044-.000001zm223.840044 55.959499v167.881568l-223.840044.000001v-167.881569zm0-447.678042v167.881568h-223.840044v-167.881568zm-279.799544 0v167.881568h-223.839021v-167.881568zm-223.839021 223.840045h223.840044v167.879522l-223.840044-.000001zm559.598065 0h223.840044v167.879522l-223.840044-.000001zm0-55.958477v-167.881568h223.840044v167.881568zm-559.598065 279.796474h223.840044v167.881568l-223.840044.000001zm559.598065 167.881569v-167.881569h223.840044v167.881568zm0 0" fill="#030000"/></svg>

<?xml version="1.0" standalone="no"?><!DOCTYPE svg PUBLIC "-//W3C//DTD SVG 1.1//EN" "http://www.w3.org/Graphics/SVG/1.1/DTD/svg11.dtd"><svg t="1546826841704" class="icon" style="" viewBox="0 0 1024 1024" version="1.1" xmlns="http://www.w3.org/2000/svg" p-id="5428" xmlns:xlink="http://www.w3.org/1999/xlink" width="32" height="32"><defs><style type="text/css"></style></defs><path d="M63.29814 120.015398l0 783.435039 895.355061 0L958.653201 120.015398 63.29814 120.015398 63.29814 120.015398zM399.05616 623.651916 399.05616 455.773418l223.840044 0 0 167.879522L399.05616 623.652939 399.05616 623.651916zM622.896204 679.611415l0 167.881568L399.05616 847.492984 399.05616 679.611415 622.896204 679.611415 622.896204 679.611415zM622.896204 231.933373l0 167.881568L399.05616 399.814941 399.05616 231.933373 622.896204 231.933373 622.896204 231.933373zM343.09666 231.933373l0 167.881568L119.257639 399.814941 119.257639 231.933373 343.09666 231.933373 343.09666 231.933373zM119.257639 455.773418l223.840044 0 0 167.879522L119.257639 623.652939 119.257639 455.773418 119.257639 455.773418zM678.855704 455.773418l223.840044 0 0 167.879522L678.855704 623.652939 678.855704 455.773418 678.855704 455.773418zM678.855704 399.814941 678.855704 231.933373l223.840044 0 0 167.881568L678.855704 399.814941 678.855704 399.814941zM119.257639 679.611415l223.840044 0 0 167.881568L119.257639 847.492984 119.257639 679.611415 119.257639 679.611415zM678.855704 847.492984 678.855704 679.611415l223.840044 0 0 167.881568L678.855704 847.492984 678.855704 847.492984zM678.855704 847.492984" p-id="5429" fill="#030000"></path></svg>
